public/logo-diba-dark.svg

<svg width="128" height="32" viewBox="0 0 128 32" fill="none" xmlns="http://www.w3.org/2000/svg">
<path fill-rule="evenodd" clip-rule="evenodd" d="M127.957 15.3931C127.957 23.9448 120.959 30.7862 112.211 30.7862H104.776C102.808 30.7862 101.277 29.2897 101.058 27.3655V27.1517C101.058 25.2276 102.808 23.5172 104.776 23.5172H112.211C116.804 23.5172 120.521 19.8828 120.521 15.3931C120.521 10.9034 116.804 7.26897 112.211 7.26897H104.776C102.808 7.26897 101.058 5.55862 101.058 3.63448V3.42069C101.277 1.49655 102.808 0 104.776 0H112.211C120.959 0 127.957 6.84138 127.957 15.3931Z" fill="url(#paint0_linear_146_245)"/>
<path fill-rule="evenodd" clip-rule="evenodd" d="M122.708 15.3931C122.708 22.4483 116.804 28.2207 109.587 28.2207H103.245C102.371 28.2207 101.715 27.7931 101.058 27.3655V27.1517C101.058 25.2276 102.808 23.5172 104.776 23.5172H112.211C116.804 23.5172 120.521 19.8827 120.521 15.3931C120.521 10.9034 116.804 7.26894 112.211 7.26894H104.776C102.808 7.26894 101.058 5.55859 101.058 3.63446V3.42066C101.715 2.99308 102.371 2.56549 103.245 2.56549H109.587C116.804 2.56549 122.708 8.3379 122.708 15.3931Z" fill="url(#paint1_linear_146_245)"/>
<path fill-rule="evenodd" clip-rule="evenodd" d="M110.123 11.2727L116.773 13.7386L116.773 17.9659L110.123 15.5L103.473 17.9659V13.7386L110.123 11.2727Z" fill="#F6862B"/>
<path d="M88.4309 9.45717C89.2714 10.4468 89.8556 11.3456 90.1836 12.1535C90.5116 12.9411 90.6756 13.7389 90.6756 14.5468C90.6756 16.102 90.1426 17.3542 89.0766 18.3034C88.0107 19.2527 86.5553 19.7273 84.7103 19.7273H76.2852L75.8855 14.3044H83.6034C83.9109 14.3044 84.1569 14.2439 84.3414 14.1227C84.5463 14.0015 84.6488 13.8399 84.6488 13.6379C84.6488 13.3552 84.4541 12.9916 84.0646 12.5473L79.2986 6.97295L83.2344 3.21631L88.4309 9.45717Z" fill="#F6862B"/>
<path fill-rule="evenodd" clip-rule="evenodd" d="M53.6995 14.3044C53.6992 14.3044 53.6988 14.3044 53.6985 14.3044H52.6838C52.3558 14.3044 52.12 14.2236 51.9765 14.0621C51.833 13.9005 51.7613 13.6379 51.7613 13.2744V0.307922H46.534V13.6985C46.534 15.6374 47.0158 17.132 47.9792 18.1822C48.9427 19.2123 50.3776 19.7273 52.284 19.7273H53.6985C53.6991 19.7273 53.6997 19.7273 53.7003 19.7273C53.7006 19.7273 53.7008 19.7273 53.7011 19.7273H56.6222C57.4627 19.7273 58.1494 19.6364 58.6824 19.4546C59.2358 19.2729 59.7073 18.9699 60.0968 18.5458C60.7733 19.3335 61.911 19.7273 63.5099 19.7273H64.5412H64.5553H67.2778C69.1433 19.7273 70.6192 19.1921 71.7056 18.1216C72.8126 17.0512 73.3661 15.597 73.3661 13.7591V8.66945H68.231V13.4864C68.231 13.7288 68.1388 13.9308 67.9543 14.0923C67.7903 14.2337 67.5648 14.3044 67.2778 14.3044H64.5553H64.5412H63.7866C63.1307 14.3044 62.8027 14.0217 62.8027 13.4561V8.66945H57.5754V13.5167C57.5754 14.0418 57.2577 14.3044 56.6222 14.3044H53.7011C53.7005 14.3044 53.7 14.3044 53.6995 14.3044ZM54.1008 26.059V21.9692H59.4511V26.059H54.1008ZM71.5211 21.9692V26.059H62.4811V21.9692H71.5211Z" fill="#F6862B"/>
<path d="M40.4124 19.7273C38.4445 19.7273 37.4605 18.7478 37.4605 16.7886C37.4605 15.7788 37.7065 15.0618 38.1985 14.6377C38.711 14.2135 39.449 14.0015 40.4124 14.0015C41.3759 14.0015 42.1036 14.2135 42.5956 14.6377C43.0875 15.0618 43.3335 15.7788 43.3335 16.7886C43.3335 18.7478 42.3598 19.7273 40.4124 19.7273Z" fill="#1C274C"/>
<path fill-rule="evenodd" clip-rule="evenodd" d="M29.0525 14.0923C28.8885 14.2337 28.6835 14.3044 28.4375 14.3044H21.1808C21.179 14.3044 21.1771 14.3045 21.1752 14.3046C21.1735 14.3045 21.1718 14.3044 21.17 14.3044H8.5016L8.07112 19.2426H13.4521C14.0261 19.2426 14.3131 19.5051 14.3131 20.0303C14.3131 20.4746 14.0876 20.8078 13.6366 21.03C13.1856 21.2522 12.4169 21.3633 11.3305 21.3633H8.6861C7.51765 21.3633 6.65669 21.0805 6.10321 20.515C5.57024 19.9495 5.30375 19.0911 5.30375 17.9399V11.699H0.0457382V18.0611C0.0457382 20.7876 0.793954 22.9184 2.29039 24.4534C3.80732 26.0086 5.90847 26.7862 8.59385 26.7862H10.9C12.5194 26.7862 13.9646 26.5034 15.2355 25.9379C16.5065 25.3724 17.5007 24.5746 18.2182 23.5445C18.9561 22.5347 19.3661 21.3633 19.4481 20.0303C19.4481 19.9091 19.4276 19.8081 19.3866 19.7273H21.17C21.1719 19.7273 21.1738 19.7272 21.1757 19.7271C21.1774 19.7272 21.1791 19.7273 21.1808 19.7273H28.376C30.2414 19.7273 31.7174 19.1921 32.8038 18.1216C33.9108 17.0512 34.4642 15.597 34.4642 13.7591V8.66943H29.3292V13.4864C29.3292 13.7288 29.237 13.9307 29.0525 14.0923ZM29.8827 26.059V21.9691H20.8426V26.059H29.8827ZM23.241 27.1497V31.2093H27.4843V27.1497H23.241Z" fill="#1C274C"/>
<defs>
<linearGradient id="paint0_linear_146_245" x1="106.744" y1="30.3586" x2="118.098" y2="0.893678" gradientUnits="userSpaceOnUse">
<stop stop-color="#FF8C26"/>
<stop offset="1" stop-color="#FABA82"/>
</linearGradient>
<linearGradient id="paint1_linear_146_245" x1="111.993" y1="28.2207" x2="111.993" y2="2.56549" gradientUnits="userSpaceOnUse">
<stop stop-color="#FBC094"/>
<stop offset="1" stop-color="#F58434"/>
</linearGradient>
</defs>
</svg>

<svg width="128" height="32" fill="none" xmlns="http://www.w3.org/2000/svg"><path fill-rule="evenodd" clip-rule="evenodd" d="M127.957 15.393c0 8.552-6.998 15.393-15.746 15.393h-7.435c-1.968 0-3.499-1.496-3.718-3.42v-.214c0-1.924 1.75-3.635 3.718-3.635h7.435c4.593 0 8.31-3.634 8.31-8.124s-3.717-8.124-8.31-8.124h-7.435c-1.968 0-3.718-1.71-3.718-3.635v-.213c.219-1.924 1.75-3.421 3.718-3.421h7.435c8.748 0 15.746 6.841 15.746 15.393z" fill="url(#prefix__paint0_linear_146_245)"/><path fill-rule="evenodd" clip-rule="evenodd" d="M122.708 15.393c0 7.055-5.904 12.828-13.121 12.828h-6.342c-.874 0-1.53-.428-2.187-.855v-.214c0-1.924 1.75-3.635 3.718-3.635h7.435c4.593 0 8.31-3.634 8.31-8.124s-3.717-8.124-8.31-8.124h-7.435c-1.968 0-3.718-1.71-3.718-3.635v-.213c.657-.428 1.313-.856 2.187-.856h6.342c7.217 0 13.121 5.773 13.121 12.828z" fill="url(#prefix__paint1_linear_146_245)"/><path fill-rule="evenodd" clip-rule="evenodd" d="M110.123 11.273l6.65 2.466v4.227l-6.65-2.466-6.65 2.466v-4.227l6.65-2.466z" fill="#F6862B"/><path d="M88.43 9.457c.841.99 1.426 1.889 1.754 2.696.328.788.492 1.586.492 2.394 0 1.555-.533 2.807-1.6 3.756-1.065.95-2.52 1.424-4.366 1.424h-8.425l-.4-5.423h7.718c.308 0 .554-.06.738-.181.205-.121.308-.283.308-.485 0-.283-.195-.646-.584-1.09l-4.766-5.575 3.935-3.757 5.197 6.241z" fill="#F6862B"/><path fill-rule="evenodd" clip-rule="evenodd" d="M53.7 14.304h-1.016c-.328 0-.564-.08-.707-.242-.144-.162-.216-.424-.216-.788V.308h-5.227v13.39c0 1.94.482 3.434 1.445 4.484.964 1.03 2.399 1.545 4.305 1.545H56.622c.84 0 1.527-.09 2.06-.272a3.276 3.276 0 001.415-.91c.676.788 1.814 1.182 3.413 1.182h3.768c1.865 0 3.341-.535 4.428-1.605 1.107-1.07 1.66-2.525 1.66-4.363V8.67h-5.135v4.817a.772.772 0 01-.277.606c-.164.142-.39.212-.676.212H63.787c-.656 0-.984-.282-.984-.848V8.67h-5.228v4.848c0 .525-.317.787-.953.787H53.7zm.4 11.755v-4.09h5.351v4.09h-5.35zm17.421-4.09v4.09h-9.04v-4.09h9.04z" fill="#F6862B"/><path d="M40.412 19.727c-1.968 0-2.951-.98-2.951-2.938 0-1.01.245-1.727.738-2.151.512-.425 1.25-.636 2.213-.636.964 0 1.692.211 2.184.636.492.424.738 1.14.738 2.15 0 1.96-.974 2.94-2.922 2.94z" fill="#1C274C"/><path fill-rule="evenodd" clip-rule="evenodd" d="M29.052 14.092a.908.908 0 01-.614.212H8.502l-.43 4.939h5.38c.574 0 .861.262.861.787 0 .445-.225.778-.676 1-.451.222-1.22.333-2.306.333H8.686c-1.168 0-2.03-.282-2.583-.848-.533-.566-.8-1.424-.8-2.575v-6.241H.047v6.362c0 2.727.748 4.857 2.244 6.392 1.517 1.556 3.618 2.333 6.304 2.333H10.9c1.62 0 3.065-.283 4.335-.848 1.271-.566 2.266-1.363 2.983-2.393.738-1.01 1.148-2.182 1.23-3.515a.666.666 0 00-.061-.303h8.989c1.865 0 3.341-.535 4.428-1.605 1.107-1.07 1.66-2.525 1.66-4.363V8.67H29.33v4.817a.772.772 0 01-.277.606zm.83 11.967v-4.09h-9.04v4.09h9.04zm-6.641 1.09v4.06h4.243v-4.06h-4.243z" fill="#1C274C"/><defs><linearGradient id="prefix__paint0_linear_146_245" x1="106.744" y1="30.359" x2="118.098" y2=".894" gradientUnits="userSpaceOnUse"><stop stop-color="#FF8C26"/><stop offset="1" stop-color="#FABA82"/></linearGradient><linearGradient id="prefix__paint1_linear_146_245" x1="111.993" y1="28.221" x2="111.993" y2="2.565" gradientUnits="userSpaceOnUse"><stop stop-color="#FBC094"/><stop offset="1" stop-color="#F58434"/></linearGradient></defs></svg>
